static/images/piperocket-logo-light.svg

<svg width="201" height="32" viewBox="0 0 201 32" fill="none" xmlns="http://www.w3.org/2000/svg">
<path d="M32.6476 0H16.54C16.2947 0 16.0543 0.0981274 15.8826 0.274757L0.260696 16.3137C-0.303537 16.8926 0.108599 17.869 0.918149 17.869H16.0003V31.0818C16.0003 31.8914 16.9767 32.3035 17.5556 31.7393L33.5897 16.1223C33.7663 15.9506 33.8644 15.7151 33.8644 15.4649V1.22169C33.8644 0.544607 33.3149 0 32.6427 0H32.6476Z" fill="#0BA6E2"/>
<path d="M15.9999 17.869V31.0819C15.9999 31.8914 16.9763 32.3035 17.5552 31.7393L33.5893 16.1223C33.7659 15.9506 33.864 15.7151 33.864 15.4649V1.22169C33.864 0.544607 33.3145 0 32.6423 0H16.5347C16.2894 0 15.8773 0.103034 15.8773 0.520075" fill="url(#paint0_linear_3_39)"/>
<path d="M45.2517 21.475V1.21167H53.8084C54.0047 1.21167 54.2696 1.21658 54.6033 1.2313C54.9369 1.24601 55.2362 1.27545 55.4962 1.32452C56.7081 1.51096 57.6992 1.90837 58.4744 2.52167C59.2496 3.13006 59.8187 3.90036 60.1818 4.82276C60.5449 5.74516 60.7313 6.77549 60.7313 7.91377C60.7313 9.05205 60.5449 10.0775 60.1769 11.0048C59.804 11.9272 59.2349 12.6975 58.4597 13.3059C57.6845 13.9143 56.6983 14.3117 55.4962 14.503C55.2313 14.5423 54.932 14.5668 54.5935 14.5864C54.2549 14.6061 53.9949 14.6159 53.8035 14.6159H49.0738V21.4848H45.2468L45.2517 21.475ZM49.0787 11.0342H53.6367C53.833 11.0342 54.0489 11.0244 54.2844 11.0048C54.5199 10.9852 54.7357 10.9459 54.932 10.8919C55.4472 10.7497 55.8446 10.5141 56.1292 10.1805C56.4088 9.84688 56.6051 9.4789 56.713 9.06677C56.8209 8.65954 56.8749 8.27194 56.8749 7.90396C56.8749 7.53598 56.8209 7.15328 56.713 6.74115C56.6051 6.33392 56.4088 5.96104 56.1292 5.6274C55.8495 5.29377 55.4472 5.05826 54.932 4.91598C54.7357 4.86201 54.5199 4.82276 54.2844 4.80313C54.0489 4.78351 53.833 4.77369 53.6367 4.77369H49.0787V11.0195V11.0342Z" fill="white"/>
<path d="M67.6544 6.27515H63.8274V21.4702H67.6544V6.27515Z" fill="white"/>
<path d="M67.6544 2.61987H67.6445C67.6004 1.60425 66.7663 0.789795 65.7409 0.789795C64.7154 0.789795 63.8814 1.59935 63.8372 2.61987H63.8274C63.8274 2.61987 63.8274 2.64931 63.8274 2.66403C63.8274 2.67875 63.8274 2.69347 63.8274 2.70819H63.8372C63.8814 3.7238 64.7154 4.53826 65.7409 4.53826C66.7663 4.53826 67.6004 3.72871 67.6445 2.70819H67.6544C67.6544 2.70819 67.6544 2.67875 67.6544 2.66403C67.6544 2.64931 67.6544 2.63459 67.6544 2.61987Z" fill="white"/>
<path d="M85.4443 9.74378C84.8457 8.53681 84.0067 7.58988 82.9322 6.89808C81.8528 6.20138 80.587 5.85303 79.1347 5.85303C77.6824 5.85303 76.4754 6.20629 75.4892 6.9128C75.396 6.97659 75.3077 7.04528 75.2194 7.11887V6.27497H71.8438V28.2261H75.6953V20.9352C76.6815 21.573 77.8934 21.8919 79.326 21.8919C80.7587 21.8919 81.946 21.5436 82.996 20.8371C84.046 20.1355 84.8653 19.1738 85.4541 17.9669C86.0379 16.7599 86.3323 15.391 86.3323 13.8749C86.3323 12.3589 86.0379 10.9458 85.4394 9.74378H85.4443ZM81.9068 16.2055C81.6516 16.9022 81.264 17.4566 80.7391 17.8736C80.2141 18.2858 79.5321 18.4967 78.7127 18.4967C77.8934 18.4967 77.177 18.3054 76.6668 17.9178C76.1516 17.5302 75.7885 16.9954 75.5628 16.2987C75.3371 15.6069 75.2243 14.7973 75.2243 13.8798C75.2243 12.9624 75.3371 12.1528 75.5628 11.461C75.7885 10.7643 76.1467 10.2246 76.6422 9.84191C77.1378 9.4543 77.7805 9.26295 78.5754 9.26295C79.434 9.26295 80.1307 9.47393 80.6802 9.89097C81.2297 10.308 81.6369 10.8673 81.897 11.564C82.1619 12.2657 82.2944 13.036 82.2944 13.8798C82.2944 14.7237 82.1668 15.5088 81.9117 16.2104L81.9068 16.2055Z" fill="white"/>
<path d="M103.378 14.9447C103.54 13.1049 103.349 11.5103 102.814 10.1512C102.284 8.78726 101.455 7.73239 100.341 6.98662C99.2273 6.23594 97.8682 5.85815 96.2736 5.85815C94.7723 5.85815 93.4475 6.2016 92.2946 6.87868C91.1366 7.56066 90.2339 8.51741 89.5813 9.744C88.9239 10.9706 88.5952 12.418 88.5952 14.0763C88.5952 15.5973 88.9288 16.9416 89.601 18.1192C90.2731 19.3016 91.2004 20.224 92.3878 20.8962C93.5751 21.5634 94.9489 21.8971 96.5042 21.8971C97.9663 21.8971 99.3156 21.5144 100.547 20.7441C101.783 19.9787 102.681 18.8944 103.255 17.5059L99.4284 16.4118C99.1438 17.0349 98.7366 17.5059 98.2067 17.8346C97.6719 18.1633 97.0243 18.3301 96.2785 18.3301C95.0863 18.3301 94.1835 17.9425 93.5702 17.1673C93.1237 16.6031 92.8343 15.8622 92.7116 14.9497H103.383L103.378 14.9447ZM92.8146 12.104C92.9618 11.3974 93.212 10.8185 93.5604 10.3671C94.1786 9.57228 95.1353 9.17486 96.4404 9.17486C97.5542 9.17486 98.3588 9.5134 98.8544 10.1954C99.1733 10.6419 99.3941 11.2797 99.5069 12.0991H92.8097L92.8146 12.104Z" fill="white"/>
<path d="M118.641 13.9682C119.525 13.5757 120.231 13.0066 120.756 12.2608C121.6 11.0538 122.022 9.60647 122.022 7.90886C122.022 6.77549 121.84 5.74516 121.472 4.82276C121.109 3.89545 120.535 3.13006 119.765 2.52167C118.995 1.90837 117.999 1.51586 116.792 1.32452C116.527 1.27545 116.228 1.24601 115.899 1.2313C115.565 1.21658 115.3 1.21167 115.104 1.21167H106.547V21.475H110.374V14.6061H114.643L117.974 21.475H122.306L118.646 13.9682H118.641ZM110.369 4.78351H114.927C115.124 4.78351 115.335 4.79332 115.57 4.81295C115.806 4.83257 116.021 4.86691 116.218 4.92579C116.733 5.06808 117.13 5.30358 117.415 5.63722C117.699 5.97085 117.891 6.34373 117.999 6.74605C118.107 7.15328 118.166 7.54089 118.166 7.90886C118.166 8.27684 118.112 8.65954 117.999 9.07167C117.891 9.474 117.699 9.84688 117.415 10.1805C117.13 10.5141 116.738 10.7497 116.218 10.8919C116.021 10.9508 115.806 10.9852 115.57 11.0048C115.335 11.0244 115.124 11.0342 114.927 11.0342H110.369V4.78351Z" fill="white"/>
<path d="M132.237 21.8971C130.706 21.8971 129.367 21.5536 128.214 20.8716C127.061 20.1848 126.163 19.2427 125.52 18.0358C124.877 16.8288 124.558 15.4452 124.558 13.8801C124.558 12.3149 124.887 10.897 125.545 9.69494C126.202 8.49287 127.105 7.55085 128.263 6.87377C129.416 6.19669 130.745 5.85815 132.247 5.85815C133.748 5.85815 135.122 6.2016 136.28 6.88359C137.438 7.57048 138.34 8.5125 138.988 9.71947C139.636 10.9264 139.959 12.31 139.959 13.8752C139.959 15.4403 139.636 16.8435 138.983 18.0456C138.331 19.2525 137.428 20.1946 136.265 20.8716C135.107 21.5536 133.768 21.8922 132.247 21.8922L132.237 21.8971ZM132.237 18.3252C133.463 18.3252 134.381 17.9082 134.989 17.079C135.593 16.2498 135.897 15.1803 135.897 13.8801C135.897 12.5799 135.588 11.4514 134.975 10.6419C134.361 9.83722 133.449 9.42999 132.237 9.42999C131.403 9.42999 130.716 9.61643 130.181 9.99422C129.646 10.3671 129.249 10.8921 128.994 11.5544C128.734 12.2217 128.606 12.9969 128.606 13.8752C128.606 15.2342 128.915 16.3185 129.529 17.1183C130.142 17.918 131.045 18.3203 132.237 18.3203V18.3252Z" fill="white"/>
<path d="M149.743 21.8971C148.168 21.8971 146.819 21.5438 145.69 20.8422C144.562 20.1406 143.703 19.1839 143.1 17.972C142.501 16.7601 142.197 15.3961 142.197 13.8752C142.197 12.3542 142.511 10.9608 143.134 9.75381C143.757 8.54194 144.636 7.5901 145.774 6.8983C146.907 6.20651 148.252 5.85815 149.797 5.85815C151.588 5.85815 153.094 6.30954 154.306 7.21722C155.518 8.1249 156.298 9.3564 156.637 10.9264L152.81 11.9371C152.584 11.1472 152.191 10.5339 151.632 10.0924C151.073 9.65078 150.445 9.42999 149.738 9.42999C148.929 9.42999 148.271 9.62625 147.756 10.0138C147.241 10.4015 146.858 10.9313 146.618 11.6035C146.372 12.2757 146.25 13.0313 146.25 13.8752C146.25 15.1999 146.544 16.2695 147.128 17.0888C147.712 17.9082 148.585 18.3203 149.738 18.3203C150.602 18.3203 151.259 18.1241 151.711 17.7267C152.162 17.3342 152.501 16.7699 152.721 16.0389L156.632 16.8533C156.2 18.4675 155.385 19.7088 154.183 20.5822C152.981 21.4555 151.5 21.8922 149.738 21.8922L149.743 21.8971Z" fill="white"/>
<path d="M159.423 21.475L159.453 1.21167H163.334V13.5953L168.485 6.27995H173.215L167.73 13.8799L173.583 21.4799H168.603L163.339 14.1645V21.4799H159.428L159.423 21.475Z" fill="white"/>
<path d="M188.65 14.9447C188.807 13.1049 188.62 11.5103 188.086 10.1512C187.551 8.78726 186.726 7.73239 185.613 6.98662C184.499 6.23594 183.14 5.85815 181.545 5.85815C180.044 5.85815 178.719 6.2016 177.561 6.87868C176.408 7.56066 175.506 8.51741 174.848 9.744C174.196 10.9706 173.867 12.418 173.867 14.0763C173.867 15.5973 174.201 16.9416 174.873 18.1192C175.54 19.3016 176.467 20.224 177.66 20.8962C178.847 21.5634 180.216 21.8971 181.771 21.8971C183.233 21.8971 184.587 21.5144 185.819 20.7441C187.05 19.9787 187.953 18.8944 188.527 17.5059L184.695 16.4118C184.411 17.0349 184.008 17.5059 183.474 17.8346C182.944 18.1633 182.296 18.3301 181.55 18.3301C180.353 18.3301 179.45 17.9425 178.842 17.1673C178.391 16.6031 178.106 15.8622 177.983 14.9497H188.655L188.65 14.9447ZM178.081 12.104C178.229 11.3974 178.484 10.8185 178.832 10.3671C179.445 9.57228 180.402 9.17486 181.707 9.17486C182.826 9.17486 183.631 9.5134 184.121 10.1954C184.445 10.6419 184.661 11.2797 184.774 12.0991H178.077L178.081 12.104Z" fill="white"/>
<path d="M196.54 9.23368V14.8073C196.54 15.401 196.549 15.9309 196.564 16.4068C196.574 16.8778 196.672 17.2605 196.849 17.5353C197.187 18.0701 197.722 18.3644 198.468 18.4086C199.209 18.4577 200.028 18.4184 200.931 18.2957V21.4751C199.881 21.6713 198.851 21.7596 197.845 21.7351C196.834 21.7106 195.936 21.5339 195.141 21.2003C194.346 20.8716 193.743 20.3319 193.331 19.591C192.953 18.8943 192.762 18.1878 192.742 17.4715C192.722 16.7502 192.713 15.9358 192.713 15.0281V9.22878H190.122V6.27514H192.713V2.05566H196.54V6.27514H200.931V9.22878H196.54V9.23368Z" fill="white"/>
<defs>
<linearGradient id="paint0_linear_3_39" x1="15.8773" y1="15.9997" x2="33.8689" y2="15.9997" gradientUnits="userSpaceOnUse">
<stop stop-color="#FF0025"/>
<stop offset="1" stop-color="#FF0025"/>
</linearGradient>
</defs>
</svg>

<svg xmlns="http://www.w3.org/2000/svg" width="201" height="32" fill="none" viewBox="0 0 201 32"><path fill="#0ba6e2" d="M32.6 0h-16l-.7.3-15.6 16A1 1 0 0 0 .9 18H16v13a1 1 0 0 0 1.6.6l16-15.6q.3-.2.3-.6V1.2Q33.8.1 32.6 0"/><path fill="url(#a)" d="M16 17.9V31a1 1 0 0 0 1.6.6l16-15.6q.3-.2.3-.6V1.2Q33.8.1 32.6 0h-16q-.6 0-.7.5"/><path fill="#fff" d="M45.3 21.5V1.2h8.5l1.7.1q1.8.3 3 1.2 1 1 1.7 2.3.5 1.5.5 3.1 0 1.8-.5 3.1t-1.7 2.3-3 1.2l-1.7.1h-4.7v6.9zM49 11h6q.8-.3 1.2-.7.5-.5.6-1.1a5 5 0 0 0 0-2.4q0-.6-.6-1-.5-.6-1.2-.8l-.6-.1H49zm18.7-4.7h-3.9v15.2h3.9zm0-3.7a2 2 0 0 0-3.8 0v.1a2 2 0 0 0 3.8 0m17.7 7a7 7 0 0 0-6.3-3.9 6 6 0 0 0-3.9 1.3v-.8h-3.4v22h3.9v-7.4q1.5 1 3.6 1t3.7-1 2.5-3q.8-1.7.8-4t-.9-4.2M82 16.2q-.3 1-1.2 1.7t-2 .6-2-.6-1.1-1.6q-.4-1-.4-2.4t.4-2.4 1-1.7a3 3 0 0 1 2-.5q1.2 0 2 .6t1.3 1.7.4 2.3-.4 2.3m21.4-1.2q.2-2.8-.6-4.8a6.5 6.5 0 0 0-6.5-4.3q-2.3 0-4 1t-2.7 2.8a9 9 0 0 0-1 4.4 8 8 0 0 0 1 4 7 7 0 0 0 2.8 2.8 8 8 0 0 0 8.1-.2 7 7 0 0 0 2.8-3.2l-3.9-1q-.5.8-1.2 1.3-.8.6-2 .5-1.7 0-2.6-1.1-.7-.9-.9-2.3zm-10.6-3q.3-1 .8-1.7.9-1.2 2.8-1.2t2.5 1q.4.6.6 1.9zm25.8 2a5 5 0 0 0 2.2-1.7 7 7 0 0 0 1.2-4.4q0-1.7-.5-3-.6-1.5-1.7-2.4t-3-1.2h-10.3v20.2h3.9v-6.9h4.2l3.4 6.9h4.3zm-8.2-9.2h4.5l1.3.1q.8.3 1.2.7.4.5.6 1.1l.2 1.2-.2 1.2q-.2.6-.6 1t-1.2.8l-.6.1h-5.2zm21.8 17.1q-2.2 0-4-1t-2.7-2.9q-1-1.8-1-4.1 0-2.4 1-4.2a7 7 0 0 1 2.8-2.8q1.6-1 4-1 2.2 0 4 1t2.7 2.8q1 1.8 1 4.2t-1 4.1a7 7 0 0 1-2.7 2.9q-1.8 1-4 1m0-3.6q2 0 2.8-1.2.9-1.4.9-3.2 0-2-1-3.3-.8-1.2-2.7-1.2-1.2 0-2 .6t-1.2 1.6-.4 2.3q0 2 1 3.2.8 1.2 2.6 1.2m17.4 3.6q-2.3 0-4-1a7 7 0 0 1-2.6-3 9 9 0 0 1-.9-4q0-2.3 1-4.1a7 7 0 0 1 6.6-4q2.7 0 4.5 1.4a6 6 0 0 1 2.3 3.7l-3.8 1q-.3-1.2-1.2-1.8a3 3 0 0 0-1.9-.7q-1.2 0-2 .6-.7.6-1 1.6t-.4 2.3q0 2 .8 3.2 1 1.2 2.6 1.2 1.4 0 2-.6t1-1.7l4 .9a7 7 0 0 1-2.5 3.7 7 7 0 0 1-4.5 1.3m9.7-.4V1.2h4v12.4l5-7.3h4.8l-5.5 7.6 5.9 7.6h-5l-5.3-7.3v7.3zm29.3-6.5q.2-2.8-.6-4.8a7 7 0 0 0-2.5-3.2 7 7 0 0 0-4-1.1q-2.4 0-4 1t-2.8 2.8q-1 1.9-1 4.4a8 8 0 0 0 1 4 7 7 0 0 0 2.9 2.8 8 8 0 0 0 8.1-.2 7 7 0 0 0 2.7-3.2l-3.8-1q-.4.8-1.2 1.3t-2 .5q-1.6 0-2.7-1.1-.6-.9-.8-2.3zM178 12q.2-1 .7-1.7.9-1.2 3-1.2 1.5 0 2.3 1 .5.6.7 1.9zm18.5-2.8v5.6l.3 2.7q.6.9 1.7 1l2.4-.2v3.2q-1.5.3-3 .2-1.6 0-2.8-.5t-1.8-1.6l-.6-2.1V9.2h-2.6v-3h2.6v-4h3.8v4.2h4.4v3z"/><defs><linearGradient id="a" x1="15.9" x2="33.9" y1="16" y2="16" gradientUnits="userSpaceOnUse"><stop stop-color="#ff0025"/><stop offset="1" stop-color="#ff0025"/></linearGradient></defs></svg>
